!!!COM: Anonim
!!!CDT: [?]
!!!OTL@@POL: Pochwalmÿ Pana
!!!TXO: Polish
!!!ODT: 
!!!GTL: Hymnbook A
!!!ARL: Opactwo św. Wojciecha, Staniątki 
!!!voices:	1
**kern
*staff1
*I"Basso
=1-
*oclefC1
*clefG2
*k[b-]
!*met(c|)
*M2/1
1g
2.f
4e
=-
2f
1g
2f
=-
2g
2b-
2b-
2a
=-
2g
2g
2f
2a
=-
2.g
4f
2e
2d
=-
4e
4f
1g
2f
=-
4g
4a
1b-
[2a
=-
4a]
4g
1g
2f#
=-
1g
!!page 85r
2r
2g
=-
2g
2f
1g
=-
2f
2a
2b-
2a
=-
2.g
4f
4g
4a
[2b-
=-
2b-]
2a
1b-
2r
=-
2b-
4a
4g
1g
=-
2f#
1.g
==
*-
!!title: @{OTL}, @{GTL}: @{pag}, ed. @{ENC}
!!!pag: pp. 84v-85r
!!!GTL: Hymnbook A
!!!EFL: 
!!!YEM: Creative Commons CC/BY/NC/SA 4.0
!!!ENC: Marcin Konik
!!!END: 2015-02-17
!!!EED: Marcin Konik
!!!EEV: 
!!!ONB: Encoded in vim by Marcin Konik
!!!CharacterEncoding: utf-8
!!!RDF**kern: l=long note in original notation
!!!RDF**kern: i=editorial accidental
!!muse2ps: z14jc180F
